X: 1
T: Harley Quinn
%%notecolors 1
%%notelabels 1
M: 3/4
K: C
A6 | F6 | A6 | F6 | E6 | D6 |
|: "Am" EAc | ecA | ecA | "Fm" FAc fcA fcA |
"Am" EAc | ecA | ecA | "Fm" FAc fcA fcA |
"Dm" DFA | fcA | fc=A | "E" EGc | ecG | ecG |
"E#" E^GB | eB^G :| "Fm" EAC e2 ACe | [Aa] |